X: 442b
T: Honky Tonk Swing
C: Bill Monroe - Arr. Mike Compton
S: Climbing The Walls CD
S: MandoZine TablEdit Archives 
Z: TablEdited by Risto for MandoZine 
L: 1/8
Q: 370
M: 4/4
K: C
 z4 zG, _B,=B, | CC E"MANDOLIN  BREAK #1"G [ecG][ecG] [eeG][ecG] |
 [ecG][ecG] [ec_B][ecG] [eeG][ecG] [ecG][e^dG] | [ecG]_B GF EC EC | _B,/=B,/C B,G, _B,2 _B,G, |
 "F""F"^G,/A,/A, FA, F2 [a2A2F2A,2] | ^F/G/c G=F ^D/E/C E/F/E |
 "C""C"C2 [c2E2C2] [cEC]G, _B,=B, | C2 [c2E2C2] [c2E2C2] [c2E2C2] |
 "G""G"G,_B, =B,G F2 F^F | Gc GF EC E/F/E | "C""C"C2 [c2E2C2] [cEC]G, _B,=B, |
 C2 [c2E2C2] [cEC][cEC] [cEC][cEC] | [ecG][ecG] [ecG][ecG] [ecG][ec^D] [ecE][ecG] |
 [e2^d2G2] [e2^d2G2] [e2^d2G2] [e2^d2G2] | [ecG]_B GF EC EC |
 "C7"A,/_B,/_B, _B,_B, _B,_B, _B,_B, | "F"[^DA,][^DA,] [^DA,][^DA,] ^DA, [^DA,][^DA,] |
 ^F/G/c G=F ^D/E/C E/F/E | "C"CG, _B,=B, EC _B,C | C2 [e2c2E2C2] [e2c2E2C2] [ecEC][ecEC] |
 "G"G,B, DG Bd gb | gf dc _BG FE | "C"C2 [c2E2C2] [cEC]G, _B,=B, | C2 [c2E2C2] [c2E2C2] [ecEC][e/c/G/G,/][e/c/G/G,/|

"C"[ecEC]"MANDOLIN  BREAK #2"[e/c/E/C/][e/c/E/C/] [ecEC][e/c/E/C/][e/c/E/C/] [ecEC][e/c/E/C/][e/c/E/C/] [ecEC][e/c/E/C/]
[e/c/E/C/] |
 [ecEC][e/c/E/C/][e/c/E/C/] [ecEC][e/c/E/C/][e/c/E/C/] [ecEC][e/c/E/C/][e/c/E/C/] [ecEC][e/c/E/C/][e/c/E/C/] |
 [ecEC][e/c/E/C/][e/c/E/C/] [ecEC][e/c/E/C/][e/c/E/C/] [ecEC][e/c/E/C/][e/c/E/C/] [ecEC][e/c/E/C/][e/c/E/C/] |
 [ecG_B,][e/c/G/_B,/][e/c/G/_B,/] [e/c/G/_B,/][e/c/G/_B,/][e/c/G/_B,/][e/c/G/_B,/] [ecG_B,][ecG_B,] [ecG_B,][e/c/G/_B,/]
[e/c/G/_B,/] |
 "F"[AG_B,]F [AFA,]^D/^D/ [^D/A,/][E/_B,/]_B,/E/ CE | [AG_B,]F [AFA,]^D/^D/ ^D/E/E/E/ F2 |
 "C"Gc GF EC B,C | G,2 [e2c2E2C2] [e2c2E2G,2] [ecEG,][ecEG,] | "G"G,_B, =B,G F^F GD |
 Gc GF EC EC | "C"EC EC CG, _B,=B, | C2 [c2E2C2] [c2E2C2] [c2E2C2] |

 "C"(3b"E: MANDOLIN  BREAK #3"c'c' (3c'c'c' (3c'c'c' (3c'c'c' | (3bc'c' (3c'c'c' (3c'c'c' (3c'c'c' |
 (3bc'c' (3c'c'c' (3c'c'c' (3c'b_b | "C7"(3ggg g2 g2 g2 |
 "F"ff zf ag zg | ag ^de ^de ^de | "C"c_B GF EC (3B,CC | G,2 [c2E2C2] [cEC][cEG,] [cEC][cEG,] |
 "G""G"G,[g2B2D2][gBD] [aBD][gBD] [^fBD][gBD] | [aBD][g2B2D2][eB] ^de ^de | "C"[c2E2G,2] [c2E2G,2] [cEG,]G, _B,=B, |
 C2 [c2E2C2] [cEC]G, _B,=B, | "C"C2 [c2E2C2] [cEC]G, _B,=B, | C2 [c2E2C2] [cEC]G, _B,=B, |
 CG, [EC][EG,] [EC][EG,] [EC][EG,] | "C7"[E_B,][EG,] [E_B,][EG,] [E_B,][EG,] [E_B,][EG,] |
 "F"^G,/A,/A, FD F2 [AFA,][G/_B,/][G/_B,/] | [G_B,][F/A,/][F/A,/] [FA,][^D/A,/][^D/A,/] [E_B,][E/_B,/][E/_B,/] [E_B,]C/C/ |
 "C"C_B,/_B,/ _B,A,/A,/ A,^G, G,=G, | C2 [e2c2E2C2] [e2c2E2G,2] [e2c2E2C2] | "G"G,_B, =B,G F2 F2 |
 Gc GF EC EC | "C"EC EC CG, _B,=B, | C2 [e2c2E2C2] [e2c2E2G,2] [e2c2E2C2] | "C"c2 cc e2 e2 |
 gg zg c'2 c'2 | e'/^c'3/2 =c'/_b3/2 g/f3/2 d/^d/e | c/_B/_z G/E/z D/^D/E [e2c2E2G,2] |
 "F"[FA,][FA,] [FA,][FA,] [FA,][FA,] DE | Gc GF EC ^DE | "C"Gc GF EC B,/C/C | G,2 [c2E2C2] [cEC][cEC] [cEC][cEC] |
 "G"B,B, DG F2 [A2F2G,2] | Gc GF EC ^DE | "C"C2 [e2c2E2C2] [e2c2E2C2] [e2c2E2C2] |
 [c/E/C/][c/E/C/][c/E/C/][c2E2C2]z/ [e4c4E4C4] |

